!!!OTL: ISCH DAT NIT AEN ELAENDS LAEWE
!!!ARE: Europa, Mitteleuropa, Deutschland; France, Elsass; Schweiz
!!!SCT: E1546
!!!YEM: Copyright 1995, estate of Helmut Schaffrath.
**kern
*ICvox
*Ivox
*M4/4
*k[b-]
*F:
=1
{4f
4g
4a
8b-
8a
=2
4g
8a
8g
4f
4c}
=3
{4.a
8b-
4cc
8dd
8cc
=4
4b-
8cc
8b-
4a
4r}
=5
{4f
4g
4a
8b-
8a
=6
4g
8a
8g
4f
4c}
=7
{4.a
8b-
4cc
8dd
8cc
=8
4b-
8cc
8b-
4a
4r}
=9
{4cc
8dd
8cc
4dd
4cc
=10
4cc
8dd
8cc
4dd
4cc}
=11
{4cc
8dd
8cc
4dd
4cc
=12
4cc
8dd
8cc
4dd
4cc}
=13
{4.cc
8b-
4a
4f
=14
4.g
8a
4f
4r}
==
!!!AGN: Staende -, Bauern - Lied, Klage
!!!ONB: ESAC (Essen Associative Code) Database: ERK3
!!!AMT: simple quadruple
!!!AIN: vox
!!!EED: Helmut Schaffrath
!!!EEV: 1.0
*-
